X: 10
T:All Asiden
C:Sue Harris
M:4/4
L:1/4
Q:100
K:G
|: "A" d>B c>A |  G G G/2A/2B/2c/2 | d B/2d/2 g/2d/2B/2d/2 | e d d/2c/2
B/2/c/2 | d>B c>A |  G G G/2A/2B/2c/2 | d B/2d/2 g/2d/2B/2d/2 | c/2A/2/
F/2A/2 G2 :|: "B" A/2/G/2/A/2B/2 c c | B/2A/2B/2c/2 d d | g/2d/2B/2d/2 e
 e  d/2B/2G/2B/2 A2 | A/2/G/2/A/2B/2 c c | B/2A/2B/2c/2 d d | e e d/2B/
2G/2B/2 | A A G2 :|
